svgs/sharp-solid/chess-king-piece.svg

<svg xmlns="http://www.w3.org/2000/svg" viewBox="0 0 256 512"><!--! Font Awesome Pro 6.6.0 by @fontawesome - https://fontawesome.com License - https://fontawesome.com/license (Commercial License) Copyright 2024 Fonticons, Inc. --><path d="M144 16l0-16L112 0l0 16 0 16L96 32 80 32l0 32 16 0 16 0 0 32L40 96l0 32 28.6 80L48 208l0 48 24 0 5.8 0L60.4 384l135.3 0L178.2 256l5.8 0 24 0 0-48-20.6 0L216 128l0-32-72 0 0-32 16 0 16 0 0-32-16 0-16 0 0-16zM43.9 416l-2.4 3.4-40 56L0 477.4 0 480l0 24 0 8 8 0 240 0 8 0 0-8 0-24 0-2.6-1.5-2.1-40-56-2.4-3.4-4.1 0L48 416l-4.1 0z"/></svg>

<svg xmlns="http://www.w3.org/2000/svg" viewBox="0 0 256 512"><!--! Font Awesome Pro 6.4.2 by @fontawesome - https://fontawesome.com License - https://fontawesome.com/license (Commercial License) Copyright 2023 Fonticons, Inc. --><path d="M144 16V0H112V16 32H96 80V64H96h16V96H40v32l28.6 80H48v48H72h5.8L60.4 384H195.6L178.2 256H184h24V208H187.4L216 128V96H144V64h16 16V32H160 144V16zM43.9 416l-2.4 3.4-40 56L0 477.4V480v24 8H8 248h8v-8V480v-2.6l-1.5-2.1-40-56-2.4-3.4H208 48 43.9z"/></svg>
